React/src/assets/images/otherSkills/yaml.svg

<svg width="130" height="130" viewBox="0 0 130 130" fill="none" xmlns="http://www.w3.org/2000/svg">
<path d="M27.0833 16.25H37.9167V27.0833H27.0833V54.1667C27.0833 57.0398 25.942 59.7953 23.9103 61.827C21.8787 63.8586 19.1232 65 16.25 65C19.1232 65 21.8787 66.1414 23.9103 68.173C25.942 70.2047 27.0833 72.9602 27.0833 75.8333V102.917H37.9167V113.75H27.0833C21.2875 112.287 16.25 108.875 16.25 102.917V81.25C16.25 78.3768 15.1086 75.6213 13.077 73.5897C11.0453 71.558 8.28985 70.4167 5.41667 70.4167H0V59.5833H5.41667C8.28985 59.5833 11.0453 58.442 13.077 56.4103C15.1086 54.3787 16.25 51.6232 16.25 48.75V27.0833C16.25 24.2102 17.3914 21.4547 19.423 19.423C21.4547 17.3914 24.2102 16.25 27.0833 16.25V16.25ZM102.917 16.25C105.79 16.25 108.545 17.3914 110.577 19.423C112.609 21.4547 113.75 24.2102 113.75 27.0833V48.75C113.75 51.6232 114.891 54.3787 116.923 56.4103C118.955 58.442 121.71 59.5833 124.583 59.5833H130V70.4167H124.583C121.71 70.4167 118.955 71.558 116.923 73.5897C114.891 75.6213 113.75 78.3768 113.75 81.25V102.917C113.75 105.79 112.609 108.545 110.577 110.577C108.545 112.609 105.79 113.75 102.917 113.75H92.0833V102.917H102.917V75.8333C102.917 72.9602 104.058 70.2047 106.09 68.173C108.121 66.1414 110.877 65 113.75 65C110.877 65 108.121 63.8586 106.09 61.827C104.058 59.7953 102.917 57.0398 102.917 54.1667V27.0833H92.0833V16.25H102.917ZM65 81.25C66.4366 81.25 67.8143 81.8207 68.8302 82.8365C69.846 83.8523 70.4167 85.2301 70.4167 86.6667C70.4167 88.1033 69.846 89.481 68.8302 90.4968C67.8143 91.5127 66.4366 92.0833 65 92.0833C63.5634 92.0833 62.1857 91.5127 61.1698 90.4968C60.154 89.481 59.5833 88.1033 59.5833 86.6667C59.5833 85.2301 60.154 83.8523 61.1698 82.8365C62.1857 81.8207 63.5634 81.25 65 81.25V81.25ZM43.3333 81.25C44.7699 81.25 46.1477 81.8207 47.1635 82.8365C48.1793 83.8523 48.75 85.2301 48.75 86.6667C48.75 88.1033 48.1793 89.481 47.1635 90.4968C46.1477 91.5127 44.7699 92.0833 43.3333 92.0833C41.8967 92.0833 40.519 91.5127 39.5032 90.4968C38.4873 89.481 37.9167 88.1033 37.9167 86.6667C37.9167 85.2301 38.4873 83.8523 39.5032 82.8365C40.519 81.8207 41.8967 81.25 43.3333 81.25ZM86.6667 81.25C88.1033 81.25 89.481 81.8207 90.4968 82.8365C91.5127 83.8523 92.0833 85.2301 92.0833 86.6667C92.0833 88.1033 91.5127 89.481 90.4968 90.4968C89.481 91.5127 88.1033 92.0833 86.6667 92.0833C85.2301 92.0833 83.8523 91.5127 82.8365 90.4968C81.8207 89.481 81.25 88.1033 81.25 86.6667C81.25 85.2301 81.8207 83.8523 82.8365 82.8365C83.8523 81.8207 85.2301 81.25 86.6667 81.25V81.25Z" fill="#F44336"/>
</svg>

<svg width="130" height="130" fill="none" xmlns="http://www.w3.org/2000/svg"><path d="M27.083 16.25h10.834v10.833H27.083v27.084A10.833 10.833 0 0116.25 65a10.833 10.833 0 0110.833 10.833v27.084h10.834v10.833H27.083c-5.795-1.463-10.833-4.875-10.833-10.833V81.25A10.833 10.833 0 005.417 70.417H0V59.583h5.417A10.833 10.833 0 0016.25 48.75V27.083A10.834 10.834 0 0127.083 16.25zm75.834 0a10.834 10.834 0 0110.833 10.833V48.75a10.832 10.832 0 0010.833 10.833H130v10.834h-5.417A10.833 10.833 0 00113.75 81.25v21.667a10.832 10.832 0 01-10.833 10.833H92.083v-10.833h10.834V75.833A10.832 10.832 0 01113.75 65a10.832 10.832 0 01-10.833-10.833V27.083H92.083V16.25h10.834zM65 81.25a5.417 5.417 0 110 10.834 5.417 5.417 0 010-10.834zm-21.667 0a5.417 5.417 0 110 10.834 5.417 5.417 0 010-10.834zm43.334 0a5.417 5.417 0 110 10.833 5.417 5.417 0 010-10.833z" fill="#F44336"/></svg>
